Sources/FrostedUI/Resources/Icons.xcassets/raiseHand24.imageset/raise-hand-24.svg

<svg width="24" height="24" viewBox="0 0 24 24" fill="none" xmlns="http://www.w3.org/2000/svg" data-fui-icon="true">
  <path
    d="M10.2217 1.875C11.3006 1.875 12.2349 2.48986 12.6963 3.3877C13.1473 3.07355 13.6951 2.8887 14.2861 2.88867C15.8209 2.88867 17.0684 4.13049 17.0684 5.66602V6.87402C17.3717 6.78158 17.6909 6.75 18 6.75C18.7136 6.75 19.3943 7.00766 19.8906 7.55566C20.3817 8.0979 20.625 8.84897 20.625 9.71973V13.5205C20.6249 18.425 16.7526 22.125 12 22.125C7.24735 22.125 3.37512 18.425 3.375 13.5205V6.67871C3.37519 5.14335 4.62258 3.90236 6.15723 3.90234C6.63344 3.90234 7.08142 4.02266 7.47363 4.2334C7.67613 2.89725 8.82934 1.87505 10.2217 1.875ZM10.2217 3.375C9.51173 3.37505 8.93945 3.94891 8.93945 4.65234V11.7197C8.93938 12.1339 8.60362 12.4697 8.18945 12.4697C7.77531 12.4697 7.43952 12.1339 7.43945 11.7197V6.67871C7.43927 5.97541 6.86711 5.40234 6.15723 5.40234C5.44736 5.40236 4.87519 5.97542 4.875 6.67871V13.5205C4.87512 17.5753 8.05432 20.625 12 20.625C15.9457 20.625 19.1249 17.5753 19.125 13.5205V9.71973C19.125 9.12112 18.9605 8.7627 18.7793 8.5625C18.6032 8.36811 18.3467 8.25 18 8.25C17.5561 8.25 17.3711 8.34584 17.2861 8.42871C17.2035 8.50949 17.0684 8.72241 17.0684 9.30469C17.0684 10.0615 16.9492 10.6577 16.7539 11.1631C16.5611 11.6622 16.3049 12.0427 16.0889 12.3555C15.6729 12.9577 15.375 13.3535 15.375 14.25C15.375 14.6642 15.0392 15 14.625 15C14.2108 15 13.875 14.6642 13.875 14.25C13.875 12.856 14.4237 12.1267 14.8545 11.5029C15.0619 11.2027 15.2298 10.9448 15.3545 10.6221C15.4767 10.3056 15.5684 9.89511 15.5684 9.30469V5.66602C15.5684 4.96255 14.9962 4.38867 14.2861 4.38867C13.5762 4.38876 13.0039 4.9626 13.0039 5.66602V10.7061C13.0039 11.1203 12.6681 11.4561 12.2539 11.4561C11.8398 11.456 11.5039 11.1202 11.5039 10.7061V4.65234C11.5039 3.94887 10.9317 3.375 10.2217 3.375Z"
    fill="currentColor"
  />
</svg>

<svg xmlns="http://www.w3.org/2000/svg" width="24" height="24" fill="none" data-fui-icon="true" viewBox="0 0 24 24"><path fill="currentColor" d="M10.222 1.875a2.78 2.78 0 0 1 2.474 1.513 2.78 2.78 0 0 1 4.372 2.278v1.208c.304-.092.623-.124.932-.124.714 0 1.394.258 1.89.806.492.542.735 1.293.735 2.164v3.8c0 4.905-3.872 8.605-8.625 8.605s-8.625-3.7-8.625-8.604V6.679a2.78 2.78 0 0 1 4.099-2.446 2.78 2.78 0 0 1 2.748-2.358m0 1.5a1.28 1.28 0 0 0-1.283 1.277v7.068a.75.75 0 0 1-1.5 0V6.679a1.28 1.28 0 0 0-1.282-1.277A1.28 1.28 0 0 0 4.875 6.68v6.842c0 4.054 3.18 7.104 7.125 7.104 3.946 0 7.125-3.05 7.125-7.104V9.72c0-.599-.165-.957-.346-1.158-.176-.194-.432-.312-.779-.312-.444 0-.629.096-.714.179-.083.08-.218.293-.218.876 0 .757-.119 1.353-.314 1.858-.193.5-.45.88-.665 1.192-.416.603-.714.999-.714 1.895a.75.75 0 0 1-1.5 0c0-1.394.549-2.123.98-2.747.207-.3.375-.558.5-.88.122-.317.213-.728.213-1.318V5.666a1.28 1.28 0 0 0-1.282-1.277 1.28 1.28 0 0 0-1.282 1.277v5.04a.75.75 0 0 1-1.5 0V4.652a1.28 1.28 0 0 0-1.282-1.277"/></svg>
